Simply black circles/symbolic/panel/battery-full-charging-symbolic.svg

<?xml version="1.0" encoding="UTF-8" standalone="no"?>
<svg
   xmlns:dc="http://purl.org/dc/elements/1.1/"
   xmlns:cc="http://creativecommons.org/ns#"
   xmlns:rdf="http://www.w3.org/1999/02/22-rdf-syntax-ns#"
   xmlns:svg="http://www.w3.org/2000/svg"
   xmlns="http://www.w3.org/2000/svg"
   xmlns:sodipodi="http://sodipodi.sourceforge.net/DTD/sodipodi-0.dtd"
   xmlns:inkscape="http://www.inkscape.org/namespaces/inkscape"
   width="24"
   height="24"
   version="1.1"
   id="svg10"
   sodipodi:docname="battery-full-charging-symbolic.svg"
   inkscape:version="0.92.3 (2405546, 2018-03-11)">
  <metadata
     id="metadata16">
    <rdf:RDF>
      <cc:Work
         rdf:about="">
        <dc:format>image/svg+xml</dc:format>
        <dc:type
           rdf:resource="http://purl.org/dc/dcmitype/StillImage" />
        <dc:title></dc:title>
      </cc:Work>
    </rdf:RDF>
  </metadata>
  <defs
     id="defs14" />
  <sodipodi:namedview
     pagecolor="#ffffff"
     bordercolor="#666666"
     borderopacity="1"
     objecttolerance="10"
     gridtolerance="10"
     guidetolerance="10"
     inkscape:pageopacity="0"
     inkscape:pageshadow="2"
     inkscape:window-width="1366"
     inkscape:window-height="719"
     id="namedview12"
     showgrid="false"
     showguides="true"
     inkscape:guide-bbox="true"
     inkscape:snap-global="true"
     inkscape:zoom="11.083333"
     inkscape:cx="-6.7218051"
     inkscape:cy="7.5611902"
     inkscape:window-x="0"
     inkscape:window-y="25"
     inkscape:window-maximized="1"
     inkscape:current-layer="svg10" />
  <path
     style="opacity:1;fill:#808080;fill-opacity:0.99579827;stroke:none;stroke-width:1.5;stroke-miterlimit:4;stroke-dasharray:none;stroke-opacity:1"
     d="M 12 0.08984375 C 5.352 0.08984375 0 5.3820559 0 11.955078 C 0 18.5281 5.352 23.820312 12 23.820312 C 12.513971 23.820312 12.950661 23.594614 13.447266 23.533203 L 15.423828 20.173828 C 14.367621 20.602268 13.215945 20.853516 12 20.853516 C 7.014 20.853516 3 16.884845 3 11.955078 C 3 7.0253116 7.014 3.0566406 12 3.0566406 C 15.793562 3.0566406 18.997768 5.3646346 20.326172 8.6347656 L 22.482422 6.4785156 C 20.471997 2.7242122 16.611691 0.08984375 12 0.08984375 z "
     id="rect814" />
  <path
     style="opacity:1;fill:#808080;fill-opacity:0.99579827;stroke:none;stroke-width:0.875;stroke-miterlimit:4;stroke-dasharray:none;stroke-opacity:1"
     d="M 13.261719 15.699219 L 6.2519531 15.699219 C 7.1923065 17.167194 8.7372847 18.056603 10.484375 18.478516 L 13.261719 15.699219 z "
     id="path840" />
  <path
     style="opacity:1;fill:#808080;fill-opacity:0.99579827;stroke:none;stroke-width:0.875;stroke-miterlimit:4;stroke-dasharray:none;stroke-opacity:1"
     d="M 18.677734 10.285156 L 5.2714844 10.285156 C 5.1110274 10.815671 5 11.36568 5 11.955078 C 5 12.611985 5.2055751 13.203479 5.3769531 13.804688 L 15.158203 13.804688 L 18.677734 10.285156 z "
     id="path835" />
  <path
     style="opacity:1;fill:#808080;fill-opacity:0.99579827;stroke:none;stroke-width:0.875;stroke-miterlimit:4;stroke-dasharray:none;stroke-opacity:1"
     d="M 6.044922,8.5253906 H 17.955078 C 16.743222,6.4729699 14.586652,5.0332031 12,5.0332031 c -2.586652,0 -4.743222,1.4397668 -5.955078,3.4921875 z"
     id="rect814-3-6"
     inkscape:connector-curvature="0" />
  <path
     inkscape:connector-curvature="0"
     style="opacity:1;fill:#808080;fill-opacity:1;stroke:none;stroke-width:1.29807615;stroke-miterlimit:4;stroke-dasharray:none;stroke-opacity:1"
     d="m 22.486026,9.9137909 -7.941405,7.3964841 h 4.537109 l -3.402343,6.339843 7.941405,-8.453124 h -3.404296 z"
     id="path816" />
</svg>

<svg xmlns="http://www.w3.org/2000/svg" width="24" height="24"><path d="M12 .09C5.352.09 0 5.382 0 11.955S5.352 23.82 12 23.82c.514 0 .95-.225 1.447-.287l1.977-3.36a9.081 9.081 0 0 1-3.424.68c-4.986 0-9-3.968-9-8.898s4.014-8.898 9-8.898a8.953 8.953 0 0 1 8.326 5.578l2.156-2.156C20.472 2.724 16.612.089 12 .089z" fill="gray" fill-opacity=".996"/><path d="M13.262 15.7h-7.01c.94 1.467 2.485 2.357 4.232 2.779l2.778-2.78zM18.678 10.285H5.27c-.16.53-.271 1.08-.271 1.67 0 .657.206 1.248.377 1.85h9.781l3.52-3.52zM6.045 8.525h11.91C16.743 6.473 14.587 5.033 12 5.033s-4.743 1.44-5.955 3.492z" fill="gray" fill-opacity=".996"/><path d="M22.486 9.914l-7.941 7.396h4.537l-3.403 6.34 7.942-8.453h-3.405z" fill="gray"/></svg>
